X:1
T:Are You Ready to Meet the Bridegroom?
T:Are You Ready to Meet the Bridegroom?
T:L. E. Larsen & Frederick Arthur Graves, 1898
T:Public Domain Courtesy of the Cyber Hymnal™
T:Public Domain Courtesy of the Cyber Hymnal™
C:L. E. Larsen & Frederick Arthur Graves, 1898
Z:Public Domain
Z:Courtesy of the Cyber Hymnal™
%%score ( 1 2 ) ( 3 4 )
L:1/8
Q:1/4=100
M:4/4
K:Ab
V:1 treble 
V:2 treble 
V:3 bass 
V:4 bass 
V:1
 [CE][CE] | [CA]2 [CA][CA] [Ec]2 [DB][CA] | ([DG][DB])[DB][DB] [DB]2 [Fd][EB] | %3
w: 1.~What, my|friend, do you say to the|Sav- * ior this day? Are you|
w: 2.~There are|sheep gone a- stray, they have|left~the * nar- row way, They’re not|
w: 3.~But I|fear there will be ma- ny|living * thought- less- ly, Go- ing|
w: 4.~Then let|all of us learn to fill|lamps * so they burn, And be|
 (3[DG][DG][DG] [DG][DG] [DG]E[DF][DG] | [CA]6 [CE][CE] | [CA]2 [CA][CA] [Ec]2 [DB][CA] | %6
w: rea- dy to meet the Bride- groom in the|sky? For the|king- dom of Heav’n is like|
w: rea- dy to meet the Bride- groom in the|sky! For their|love grow- ing cold, they are|
w: fo- rth to meet the Bride- groom in the|sky; And their|lamps will not burn, so for|
w: rea- dy to meet the Bride- groom in the|sky; Not be|like fool- ish ones, n- o|
 ([EG][EB])[EB][EB] [EB]2 [Ed][EB] | (3([EG][EG])[EG] [EG][EG] [EG]E[DF][EG] | [CA]6 || %9
w: virgins * three and sev’n, Go- ing|forth * to meet the Bride- groom in the|sky.|
w: far * from the fold, And not|ready * to meet the Bride- groom in the|sky.|
w: oil * they’ll re- turn, And the|Bride- * groom Je- sus com- eth in the|sky.|
w: oil * when He comes, But be|ready * to meet the Bride- groom in the|sky.|
"^Refrain" [CE][CA] | (3[Ec][Ec][Ec] [Ec][Ec] [Ec][Ec][DB][CA] | [DB]6 E[EG] | %12
w: Are you|rea- dy to meet the Bride- groom in the|sky? Are you|
w: |||
w: |||
w: |||
 (3[EB][EB][EB] [EB][EB] [Ed][Ed][Ec][EB] | [Ec]6 (Ac) | [Ae]2 [Ae]2 (cB) A2 | %15
w: rea- dy to meet the Bride- groom in the|sky? The *|day is near * when|
w: |||
w: |||
w: |||
 [Af]2 [Af]2 (dc)[FB][FA] | (3[EG][EG][EG] [EG][EG] [EG]E[Ec][DB] | [CA]6 |] %18
w: He’ll ap- pear; * O be|rea- dy to meet the Bride- groom in the|sky.|
w: |||
w: |||
w: |||
V:2
 x2 | x8 | x8 | x5 E x2 | x8 | x8 | x8 | x5 E x2 | x6 || x2 | x8 | x6 E x | x8 | x6 A2 | x4 A2 A2 | %15
 x4 F2 x2 | x5 E x2 | x6 |] %18
V:3
 [A,,A,][A,,A,] | [A,,A,]2 [A,,A,][A,,A,] [A,,A,]2 [A,,A,][A,,A,] | %2
w: ~ ~|~ ~ ~ ~ ~ ~|
 ([E,B,][E,G,])[E,G,][E,G,] [E,G,]2 [E,G,][E,G,] | %3
w: ~ * ~ ~ ~ ~ ~|
 (3[E,B,][E,B,][E,B,] [E,B,][E,B,] [E,B,][E,G,][E,A,][E,B,] | [A,,A,]6 [A,,A,][A,,A,] | %5
w: ~ ~ ~ ~ ~ ~ ~ ~ ~|~ ~ ~|
 [A,,A,]2 [A,,A,][A,,A,] [A,,A,]2 [A,,A,][A,,A,] | %6
w: ~ ~ ~ ~ ~ ~|
 ([E,B,][E,G,])[E,G,][E,G,] [E,G,]2 [E,G,][E,G,] | %7
w: ~ * ~ ~ ~ ~ ~|
 (3([E,B,][E,B,])[E,B,] [E,B,][E,B,] [E,B,][E,G,][E,A,][E,B,] | [A,,A,]6 || [A,,A,][A,,A,] | %10
w: ~ * ~ ~ ~ ~ ~ ~ ~|~|~ ~|
 (3[A,,A,][A,,A,][A,,A,] [A,,A,][A,,A,] [A,,A,][A,,A,][A,,A,][A,,A,] | %11
w: ~ ~ ~ ~ ~ ~ ~ ~ ~|
 [E,G,]2 [E,G,][E,G,] [E,G,]2 [E,G,][E,G,] | (3[E,G,][E,G,][E,G,] [E,G,][E,G,] [E,B,][E,B,] z2 | %13
w: ~ ~ ~ ~ ~ ~|~ ~ ~ ~ ~ ~ ~|
 [A,,A,][A,,A,][C,A,][E,A,] A,2 (CE) | [A,C]2 [A,C]2 (EC) [A,C]2 | %15
w: Bride- groom in the sky? * *||
 [D,D]2 [D,D]2 [D,D]2 [D,D][D,D] | (3[E,B,][E,B,][E,B,] [E,B,][E,B,] [E,B,][E,B,][E,A,][E,G,] | %17
w: ||
 [A,,A,]6 |] %18
w: |
V:4
 x2 | x8 | x8 | x8 | x8 | x8 | x8 | x8 | x6 || x2 | x8 | x8 | x8 | x4 A,2 A,,2 | x4 A,2 x2 | x8 | %16
 x8 | x6 |] %18

